frontend/svgs/biz053.svg

<?xml version="1.0" encoding="UTF-8"?> <svg width="100px" height="100px" viewBox="0 0 100 100" version="1.1" xmlns="http://www.w3.org/2000/svg" xmlns:xlink="http://www.w3.org/1999/xlink"> <g id="53.-Rocket" stroke="none" stroke-width="1" fill="none" fill-rule="evenodd" stroke-linecap="round" stroke-linejoin="round"> <path d="M23.6615396,82.7237263 C22.5874888,86.5952907 20.0045853,90.9820326 18.3067969,92.6624965 C15.5112876,95.4294802 2.21100546,97.5112288 2.21100546,97.5112288 C2.21100546,97.5112288 4.4546571,84.207655 7.10972461,81.5796801 C8.73065103,79.9752937 13.2191146,77.3820165 17.1732534,76.3016471 L23.6615396,82.7237263 Z" id="Layer-2" stroke="#FF8D8D" stroke-width="4" fill="#FF8D8D"></path> <polygon id="Layer-1" stroke="#576574" stroke-width="4" fill="#576574" points="34.522658 79.3828075 26.5205511 83.9305233 15.9317182 73.4497397 20.5263176 65.5292869"></polygon> <path d="M56.8583313,69.6196985 L59.3659891,78.900695 C59.7897608,80.4691004 59.1866304,82.6775496 58.0360929,83.8163469 L52.1678951,89.6246651 C51.009642,90.7710993 49.2869443,90.64259 48.310651,89.3248207 L42.1081322,80.9528601 C44.2847204,79.4674352 49.5153785,75.7554955 56.8583313,69.6196985 L56.8583313,69.6196985 Z" id="Layer-3" stroke="#3A816D" stroke-width="4" fill="#3A816D"></path> <path d="M30.3139636,43.401381 L21.0134004,40.9394593 C19.4288259,40.5200117 17.1976091,41.1169878 16.0470716,42.2557851 L10.1788739,48.0641033 C9.02062077,49.2105375 9.1504549,50.9156566 10.4818095,51.8819877 L18.8905069,57.9852349 C20.3526811,55.8536362 24.0120887,50.7540046 30.3139636,43.401381 L30.3139636,43.401381 Z" id="Layer-4" stroke="#3A816D" stroke-width="4" fill="#3A816D"></path> <path d="M48.1226177,24.3610611 C69.4103134,3.29058684 95.8570559,1.55613815 97.5061899,3.18844418 C99.1553238,4.82075021 97.3411451,31.058846 76.5116793,51.6757663 C55.6822134,72.2926866 40.9841611,81.7036063 40.9841611,81.7036063 C39.6356719,82.6193108 37.5976535,82.4264255 36.4364588,81.2770798 L24.4750074,69.437684 L18.5860016,63.6087701 C17.4269398,62.4615355 17.219196,60.4362375 18.1434505,59.1022676 C18.1434505,59.1022676 26.834922,45.4315354 48.1226177,24.3610611 L48.1226177,24.3610611 Z" id="Layer-5" stroke="#55AB94" stroke-width="4" fill="#55AB94"></path> <path d="M66.714241,33.6661895 C69.0332306,35.961516 72.7930556,35.961516 75.1120452,33.6661895 C77.4310348,31.3708631 77.4310348,27.6494036 75.1120452,25.3540772 C72.7930556,23.0587507 69.0332306,23.0587507 66.714241,25.3540772 C64.3952514,27.6494036 64.3952514,31.3708631 66.714241,33.6661895 L66.714241,33.6661895 Z" id="Layer-6" stroke="#FFFFFF" stroke-width="4" fill="#FFFFFF"></path> </g> </svg>

<svg width="100" height="100" xmlns="http://www.w3.org/2000/svg"><g fill="none" fill-rule="evenodd" stroke-linecap="round" stroke-linejoin="round" stroke-width="4"><path d="M23.662 82.724c-1.075 3.871-3.657 8.258-5.355 9.938-2.796 2.767-16.096 4.85-16.096 4.85S4.455 84.207 7.11 81.58c1.62-1.605 6.11-4.198 10.063-5.278l6.489 6.422z" stroke="#FF8D8D" fill="#FF8D8D"/><path stroke="#576574" fill="#576574" d="M34.523 79.383L26.52 83.93 15.93 73.45l4.595-7.92z"/><path d="M56.858 69.62l2.508 9.28c.424 1.57-.18 3.778-1.33 4.916l-5.868 5.809c-1.158 1.146-2.881 1.018-3.857-.3l-6.203-8.372c2.177-1.486 7.407-5.198 14.75-11.333h0zM30.314 43.401l-9.3-2.462c-1.585-.419-3.816.178-4.967 1.317l-5.868 5.808c-1.158 1.147-1.029 2.852.303 3.818l8.409 6.103c1.462-2.131 5.121-7.231 11.423-14.584h0z" stroke="#3A816D" fill="#3A816D"/><path d="M48.123 24.361C69.41 3.291 95.857 1.556 97.506 3.188c1.65 1.633-.165 27.87-20.994 48.488-20.83 20.617-35.528 30.028-35.528 30.028-1.348.915-3.386.722-4.548-.427l-11.961-11.84-5.889-5.828c-1.16-1.147-1.367-3.173-.443-4.507 0 0 8.692-13.67 29.98-34.74h0z" stroke="#55AB94" fill="#55AB94"/><path d="M66.714 33.666a5.982 5.982 0 008.398 0 5.835 5.835 0 000-8.312 5.982 5.982 0 00-8.398 0 5.835 5.835 0 000 8.312h0z" stroke="#FFF" fill="#FFF"/></g></svg>
